gama.ui.shared/icons_svg/light/agents/agent.kill.svg

<svg height="25" viewBox="-829.504 -4045.5 25 25" width="25" xmlns="http://www.w3.org/2000/svg"><g fill="none"><circle cx="-817.004" cy="-4033" fill="#fff" r="12"/><circle cx="-817.004" cy="-4033" r="12" stroke="#000" stroke-linecap="round" stroke-linejoin="round" stroke-width=".25"/><path d="m-825.006-4039.563 17.1444 11.1046" stroke="#fff" stroke-linecap="round" stroke-linejoin="round" stroke-width="2"/><path d="m-813.6146-4028.263-2.0893-2.0895c-.1542-.1541-.1542-.404 0-.5582.1541-.1543.4041-.1543.5582 0l2.0893 2.0893 2.0893-2.0893c.1542-.1543.4041-.1543.5583 0 .1541.1542.1541.4041 0 .5582l-2.0893 2.0895 2.0893 2.089c.1541.1543.1541.404 0 .5584-.1542.1541-.4041.1541-.5583 0l-2.0893-2.0894-2.0893 2.0894c-.1541.1541-.4041.1541-.5582 0-.1542-.1544-.1542-.4041 0-.5584zm-2.1714-4.6856c-.4923.2206-1.0381.3433-1.6125.3433-.5732 0-1.118-.1222-1.6095-.3417l-3.2226 1.4646c-.4228.1921-.6942.6137-.6942 1.0781v.5623c0 .654.5302 1.184 1.1842 1.184h3.9474c.218 0 .3947.177.3947.395s-.1767.3946-.3947.3946h-3.9474c-1.09 0-1.9737-.8836-1.9737-1.9736v-.5623c0-.774.4524-1.4767 1.157-1.7967l2.7289-1.2406c-.9237-.7224-1.5174-1.8474-1.5174-3.111 0-2.1801 1.7673-3.9474 3.9473-3.9474 2.1801 0 3.9474 1.7673 3.9474 3.9474 0 1.2576-.5881 2.3776-1.5042 3.1006l2.0541.8785c.2005.0858.2935.3177.2078.5182-.0858.2003-.3177.2933-.5182.2077zm-1.6125-.4461c1.7441 0 3.1579-1.4139 3.1579-3.1579 0-1.7441-1.4138-3.1579-3.1579-3.1579-1.744 0-3.1579 1.4138-3.1579 3.1579 0 1.744 1.4139 3.1579 3.1579 3.1579z" fill="#9f4c4d"/></g></svg>

<?xml version="1.0" encoding="UTF-8" standalone="no"?>
<!DOCTYPE svg PUBLIC "-//W3C//DTD SVG 1.1//EN" "http://www.w3.org/Graphics/SVG/1.1/DTD/svg11.dtd">
<svg version="1.1" xmlns="http://www.w3.org/2000/svg" xmlns:xl="http://www.w3.org/1999/xlink" xmlns:dc="http://purl.org/dc/elements/1.1/" viewBox="-829.5037 -4045.5 24.999996 25" width="24.999996" height="25">
  <defs/>
  <g id="SOURCES" stroke-dasharray="none" fill="none" stroke="none" fill-opacity="1" stroke-opacity="1">
    <title>SOURCES</title>
    <g id="SOURCES_Calque_2">
      <title>Calque 2</title>
      <g id="Group_8776">
        <title>agents/agent.kill</title>
        <g id="Graphic_8780">
          <circle cx="-817.0037" cy="-4033" r="12.000018268838" fill="white"/>
          <circle cx="-817.0037" cy="-4033" r="12.000018268838" stroke="black" stroke-linecap="round" stroke-linejoin="round" stroke-width=".25"/>
        </g>
        <g id="Line_8778">
          <line x1="-825.006" y1="-4039.563" x2="-807.8616" y2="-4028.4584" stroke="white" stroke-linecap="round" stroke-linejoin="round" stroke-width="2"/>
        </g>
      </g>
      <g id="Graphic_8781">
        <path d="M -813.6146 -4028.263 L -815.7039 -4030.3525 C -815.8581 -4030.5066 -815.8581 -4030.7565 -815.7039 -4030.9107 C -815.5498 -4031.065 -815.2998 -4031.065 -815.1457 -4030.9107 L -813.0564 -4028.8214 L -810.9671 -4030.9107 C -810.8129 -4031.065 -810.563 -4031.065 -810.4088 -4030.9107 C -810.2547 -4030.7565 -810.2547 -4030.5066 -810.4088 -4030.3525 L -812.4981 -4028.263 L -810.4088 -4026.174 C -810.2547 -4026.0197 -810.2547 -4025.77 -810.4088 -4025.6156 C -810.563 -4025.4615 -810.8129 -4025.4615 -810.9671 -4025.6156 L -813.0564 -4027.705 L -815.1457 -4025.6156 C -815.2998 -4025.4615 -815.5498 -4025.4615 -815.7039 -4025.6156 C -815.8581 -4025.77 -815.8581 -4026.0197 -815.7039 -4026.174 Z M -815.786 -4032.9486 C -816.2783 -4032.728 -816.8241 -4032.6053 -817.3985 -4032.6053 C -817.9717 -4032.6053 -818.5165 -4032.7275 -819.008 -4032.947 L -822.2306 -4031.4824 C -822.6534 -4031.2903 -822.9248 -4030.8687 -822.9248 -4030.4043 L -822.9248 -4029.842 C -822.9248 -4029.188 -822.3946 -4028.658 -821.7406 -4028.658 L -817.7932 -4028.658 C -817.5752 -4028.658 -817.3985 -4028.481 -817.3985 -4028.263 C -817.3985 -4028.045 -817.5752 -4027.8684 -817.7932 -4027.8684 L -821.7406 -4027.8684 C -822.8306 -4027.8684 -823.7143 -4028.752 -823.7143 -4029.842 L -823.7143 -4030.4043 C -823.7143 -4031.1783 -823.2619 -4031.881 -822.5573 -4032.201 L -819.8284 -4033.4416 C -820.7521 -4034.164 -821.3458 -4035.289 -821.3458 -4036.5526 C -821.3458 -4038.7327 -819.5785 -4040.5 -817.3985 -4040.5 C -815.2184 -4040.5 -813.4511 -4038.7327 -813.4511 -4036.5526 C -813.4511 -4035.295 -814.0392 -4034.175 -814.9553 -4033.452 L -812.9012 -4032.5735 C -812.7007 -4032.4877 -812.6077 -4032.2558 -812.6934 -4032.0553 C -812.7792 -4031.855 -813.0111 -4031.762 -813.2116 -4031.8476 L -815.786 -4032.9486 Z M -817.3985 -4033.3947 C -815.6544 -4033.3947 -814.2406 -4034.8086 -814.2406 -4036.5526 C -814.2406 -4038.2967 -815.6544 -4039.7105 -817.3985 -4039.7105 C -819.1425 -4039.7105 -820.5564 -4038.2967 -820.5564 -4036.5526 C -820.5564 -4034.8086 -819.1425 -4033.3947 -817.3985 -4033.3947 Z" fill="#9f4c4d"/>
      </g>
    </g>
  </g>
</svg>
